!!!!SEGMENT: pl-kk--kk-i-386--001-008_anonim--missa-prima-agnus.krn
!!!cenid: 18xx:4506
!!!COM: Anonim
!!!COM-rismID: pe30004985
!!!CDT:
!!!CNT:
!!!OPR: [Missa prima]
!!!OTL: Agnus
!!!OMV: 008
!!!PDT:
!!!AGN: Sacred
!!!YEC: Copyright 2022 Narodowy Instytut Fryderyka Chopina (https://polishscores.org)
!!!YEM: License CC-BY-4.0 (https://creativecommons.org/licenses/by/4.0)
!!!SMS-siglum: PL-Kk
!!!SMS-shelfmark: Kk.I.386
!!!SMS-variant:
!!!SMS-altvar:
!!!SMS-shelfwork: 001-008 M
!!!NIFC-rismSourceID: 1001218240
!!!NIFC-rismChildID: 1001218242
!!!NIFC-islandoraID: pl-kk:16060
!!!URL-pdf-islandora: https://repozytorium.nifc.pl/islandora/object/pl-kk%3A16060/datastream/PDF/view
!!!URL-scan: https://polish.musicsources.pl/pl/lokalizacje/galeria/rekopisy/7134/3 @EN{Scan on Polish Music Sources Website} @PL{Skany w portalu Dziedzictwo Muzyki Polskiej w otwartym dostępie}
!!!IIIF:
!!!ONB-nifc: UWAGA: Części Missy Prima: Rorate, Kyrie, Gloria, Graduale, Offertorium, Sanctus, Benedicuts, Agnus, Dona. Zakres skanów: S – 3-6, A – 12-15, T – 22-25, B – 32-25
!!!AIN: 1 alto 1 bass 1 soprn 1 tenor
!!!key:
**kern	**text	**kern	**text	**kern	**text	**kern	**text
*part4	*part4	*part3	*part3	*part2	*part2	*part1	*part1
*staff4	*staff4	*staff3	*staff3	*staff2	*staff2	*staff1	*staff1
*I"Basso.	*	*I"Tenore.	*	*I"Alto.	*	*I"Soprano.	*
*I'B	*	*I'T	*	*I'A	*	*I'S	*
*Ibass	*	*Itenor	*	*Ialto	*	*Isoprn	*
*ICvox	*	*ICvox	*	*ICvox	*	*ICvox	*
*clefF4	*	*clefC4	*	*clefC3	*	*clefC1	*
*k[f#]	*	*k[f#]	*	*k[f#]	*	*k[f#]	*
*G:	*	*G:	*	*G:	*	*G:	*
*M4/4	*	*M4/4	*	*M4/4	*	*M4/4	*
*met(c)	*	*met(c)	*	*met(c)	*	*met(c)	*
!LO:TX:a:t=in G.	!	!LO:TX:a:t=in G.	!	!LO:TX:a:t=in G.	!	!LO:TX:a:t=in G.	!
8G\	A-	8B\	A-	8g\	A-	8b\	A-
8G\	-gnus	8c\	-gnus	8a\	-gnus	8cc\	-gnus
=1	=1	=1	=1	=1	=1	=1	=1
4.G\	De-	4.d\	De-	4.b\	De-	4.dd\	De-
8G\	-i	8d\	-i	8b\	-i	8dd\	-i
4F#\	A-	4d\	A-	4a\	A-	4dd\	A-
4F#\	-gnus	4d\	-gnus	4a\	-gnus	8ee\L	-gnus
.	.	.	.	.	.	8ff#\J	.
=2	=2	=2	=2	=2	=2	=2	=2
*2\right	*	*2\right	*	*2\right	*	*	*
2E\	De-	2B\	De-	2b\	De-	(4.gg\	De-
.	.	.	.	.	.	8g\)	.
4E\	-i	4B\	-i	4b\	-i	4g\	-i
4E\	qui	4B\	qui	4b\	qui	4g\	qui
=3	=3	=3	=3	=3	=3	=3	=3
4F#\	tol-	4d\	tol-	4a\	tol-	4cc\	tol-
8F#\	-lis	8d\	-lis	8a\	-lis	8cc\	-lis
8F#\	pec-	8d\	pec-	8a\	pec-	8cc\	pec-
4G\	-ca-	4d\	-ca-	4g\	-ca-	4b\	-ca-
4C/	-ta	4e\	-ta	4a\	-ta	8dd\L	-ta
.	.	.	.	.	.	8cc\J	.
!LO:LB:g=original	!	!LO:LB:g=original	!	!	!	!LO:LB:g=original	!
=4	=4	=4	=4	=4	=4	=4	=4
2D\	mun-	2d\	mun-	2g\	mun-	2b\	mun-
!	!	!	!	!LO:LB:g=original	!	!	!
4D\	-di	4d\	-di	4f#\	-di,	4a\	-di
4D\	qui	4d\	qui	4f#\	qui	4a\	qui
=5	=5	=5	=5	=5	=5	=5	=5
2BB/	tol-	2d#X\	tol-	2f#\	tol-	2b\	tol-
4BB/	-lis	4d#\	-lis	4f#\	-lis	4b\	-lis
4BB/	pec-	4d#\	pec-	4f#\	qui	4b\	pec-
=6	=6	=6	=6	=6	=6	=6	=6
2E\	-ca-	2B\	-ca-	4.g\	tol-	4.b\	-ca-
.	.	.	.	8f#\	.	8a\	.
4E\	-ta	4B\	-ta	4e\	-lis	4g\	-ta,
4C#X/	pec-	4A\	pec-	4e\	pec-	4g\	pec
=7	=7	=7	=7	=7	=7	=7	=7
4D\	-ca-	2A\	-ca-	2d\	-ca-	4f#\	ca-
4F#\	.	.	.	.	.	4a\	.
4G\	.	4d\	.	4g\	.	4b\	.
4A\	-ta	4e\	-ta	4g\	-ta	4cc#X\	-ta
=8	=8	=8	=8	=8	=8	=8	=8
2D\	mun-	2c#X\	mun-	2g\	mun-	2ee\	mun-
4D\	-di	4d\	-di	4f#\	-di	4dd\	-di
8D\	mi-	8d\	mi-	8d\	mi-	8d/	mi-
8D\	-se-	8d\	-se-	8d\	-se-	8d/	-se-
!LO:LB:g=original	!	!	!	!	!	!LO:LB:g=original	!
=9	=9	=9	=9	=9	=9	=9	=9
2D\	-re-	4.A\	-re-	4.a\	-re-	4.cc\	-re-
.	.	8B\	.	8g\	.	8b\	.
4D\	-re	4cn\	-re	4f#\	-re	4a\	-re
!	!	!	!	!LO:LB:g=original	!	!	!
8D\	mi-	8c\	mi-	8f#\	mi-	8a\	mi-
8D\	-se-	8c\	-se-	8f#\	-se-	8a\	-se-
!	!	!LO:LB:g=original	!	!	!	!	!
=10	=10	=10	=10	=10	=10	=10	=10
2G\	-re-	4.B\	-re-	4.b\	-re-	4.dd\	-re-
.	.	8c\	.	8a\	.	8cc\	.
4G\	-re	4d\	-re	4g\	-re	4b\	-re
8GG/	mi-	8d\	mi-	8g\	mi-	8b\	mi-
8GG/	-se-	8d\	-se-	8g\	-se-	8b\	-se-
=11	=11	=11	=11	=11	=11	=11	=11
4C/	-re-	4c\	-re-	4e\	-re-	4a\	-re-
4D/	.	4B\	.	4fn\	.	4g#X\	.
4C/	.	4c\	.	4e\	.	4a\	.
4AA/	-re	8e\L	re	4a\	-re	8cc\L	.
.	.	8c\J	.	.	.	8ee\J	-re
=12	=12	=12	=12	=12	=12	=12	=12
*	*	*	*	*	*	*2\right	*
1D	no-	2B\	no-	2g\	no-	2dd\	no-
.	.	2c\	.	2f#X\	.	2f#/	.
=13	=13	=13	=13	=13	=13	=13	=13
2GG/	-bis	2B\	-bis	2d\	-bis	2g\	-bis
4r	.	4r	.	4r	.	4r	.
4G\	mi-	4B\	mi-	[4g\	mi-	4g\	mi-
!	!	!	!	!	!	!LO:LB:g=original	!
=14	=14	=14	=14	=14	=14	=14	=14
4C/	.	4c\	.	4g\]	.	4ee\	.
4C/	-se-	4c\	-se-	4g\	-se-	4ee\	-se-
!LO:LB:g=original	!	!	!	!LO:LB:g=original	!	!	!
4C/	-re-	4c\	-re-	4g\	-re-	4ee\	-re-
4C/	-re	4c\	-re	4g\	-re	4ee\	-re
=15	=15	=15	=15	=15	=15	=15	=15
1C	no-	1c	no-	1g	no-	1ee	no-
=16	=16	=16	=16	=16	=16	=16	=16
2GG/	-bis.	2B\	-bis.	2g\	-bis.	2dd\	-bis.
!	!	!	!	!LO:TX:a:t=Volti Subito	!	!LO:N:vis=4	!
!	!	!LO:N:vis=4	!	!LO:N:vis=4	!	!	!
2r	.	2r	.	2r	.	2r	.
!	!	!	!	!	!	!LO:TX:a:t=Volti Subitto	!
==	==	==	==	==	==	==	==
*-	*-	*-	*-	*-	*-	*-	*-
!!!system-decoration: [(s1,s2,s3,s4)]
!!!ENC: Anastazja Marusiak
!!!END: 2023-11-01
!!!ENC: Leszek Kubiak
!!!END: 2024-06-24
